X: 2070
T: Âşık Oldur Kim Kılar...
C: Hacı Ârif Bey
O: Turkey
F: http://compmusic.upf.edu/node/140
N: rast--sarki--curcuna--asik_oldur--haci_arif_bey
N: makam= rast
N: form= sarki
N: usul= curcuna = 10/8
M: 10/8
L: 1/16
K: C _1/4B ^f  
Q: 1/4=216
%%MIDI tuningsystem comma53
G6G4G4B4A2  | A4 B4 A2G4e4d2  | d4 c2c2 B2B2 A2A4G2  | G16-G4  | 
w:  Â şık  ol  |  dur   |  kim  *  kı *  lar   |  câ  | 
c4 B2c4d8z2  | _7/8e2d2 e2f4d2 c2B6  | \
w:  nın  *  fe dâ   |  câ  | 
c4 {d}c2d4d2 c2c4B2  | B4 e2d2 c2B2 A2G4z2  | 
w:  nâ *  *  *  *  *  *  nı  |  na   SAZ  | 
G6G4G4B4A2  | A4 B4 A2G4e4d2  | d4 c2c2 B2B2 A2A4G2  | G16-G4  | 
w:  Â şık  ol  |  dur   |  kim  *  kı *  lar   |  câ  | 
c4 B2c4d8z2  | _7/8e2d2 e2f4d2 c2B6  | \
w:  nın  *  fe dâ   |  câ  | 
c4 {d}c2d4d2 c2c4B2  | B4 e2d2 c2B2 c2d4z2  | 
w:  nâ *  *  *  *  *  *  nı  |  na   SAZ  | 
c6d4d4c4B2  | c6c2 B2B2 A8  | B4 A2B4c4d4c2  | \
w:  Meyl_ i  câ  |  nân   |  et *  me sin   | 
B6B2 A2A2 G2G4z2  | 
w:  her   | 
G6A4B4A4G2  | c6d4B2 A2G4z2  | d8 ^c_7/8BB8AG  | \
w:  kim  ki  kıy  |  maz   |  câ *  *  *  nı  | 
G8-G2B2 c2d4z2  | 
w:  na   SAZ  | 
c6d4d4c4B2  | c6c2 B2B2 A8  | B4 A2B4c4d4c2  | \
w:  Meyl_ i  câ  |  nân   |  et *  me sin   | 
B6B2 A2A2 G2G4z2  | 
w:  her   | 
G6A4B4A4G2  | c6d4B2 A2G4z2  | d8 ^c_7/8BB8AG  | \
w:  kim  ki  kıy  |  maz   |  câ *  *  *  nı  | 
G8-G2c2 d2e4z2  | 
w:  na   SAZ  | 
c6d4e8z2  | e18d2  | g4 e2e4e2 d2d4c2  | d16-d4  | \
w:  Câ nı nı   |  câ  |  nâ *  na  ver  |  mek  | 
c6d4e4=f4g2  | e8-e2d4c4B2  | 
w:  dir  ke mâ  |  li   | 
c4 {d}c2d4d2 c2c4B2  | B8-B2c2 d2e4z2  | \
w:  â *  *  *  *  *  *  şı  |  kın   SAZ  | 
c6d4e8z2  | e18d2  | g4 e2e4e2 d2d4c2  | 
w:  Câ nı nı   |  câ  |  nâ *  na  ver  | 
d16-d4  | c6d4e4=f4g2  | e8-e2d4c4B2  | \
w:  mek  |  dir  ke mâ  |  li   | 
c4 {d}c2d4d2 c2c4B2  | B8-B2B2 c2d4z2  | 
w:  â *  *  *  *  *  *  şı  |  kın   SAZ  | 
c6d4d4c4B2  | c6c2 B2B2 A8  | B4 A2B4c4d4c2  | \
w:  Meyl_ i  câ  |  nân   |  et *  me sin   | 
B6B2 A2A2 G2G4z2  | 
w:  her   | 
G6A4B4A4G2  | c6d4B2 A2G4z2  | d8 ^c_7/8BB8AG  | \
w:  kim  ki  kıy  |  maz   |  câ *  *  *  nı  | 
G8-G2B2 c2d4z2  | 
w:  na   SAZ  | 
c6d4d4c4B2  | c6c2 B2B2 A8  | B4 A2B4c4d4c2  | \
w:  Meyl_ i  câ  |  nân   |  et *  me sin   | 
B6B2 A2A2 G2G4z2  | 
w:  her   | 
G6A4B4A4G2  | c6d4B2 A2G4z2  | d8 ^c_7/8BB8AG  | \
w:  kim  ki  kıy  |  maz   |  câ *  *  *  nı  | 
G8-G2|
w:  na    | 


